X: 33086
T: Primrose Polka, The
R: barndance
M: 4/4
K: Gmajor
|:d2|Bcde ed^cd|b2 g2 b2 g2|Bcde ed^cd|A4- A2 G2|
AGAB cBcd|f2 c2 f2 e2|dg e2 dB A2|B4- B2:|
|:d2|B4- BBcd|b4- b2 a2|gdBd g2 ag|f2 e2 e4|
[1 A4- AABc|f4- f2 e2|dg e2 d2 c2|c2 B2 B2:|
[2 c'bab c'4|baga b4|ageg ac'ba|g2 b2 g3 d||
|:bagf g2 d2|bagf g2 d2|edef gage|
[1 d4- d2 B2|cBcd d2 c2|BABc d2 B2|^c4- c2 d2|d2 c2 B2 A2:|
[2 d4- d2 g2|edea c'2 a2|d^cdg b2 g2|d^cdf g2 f2|g4- g2||

